build/system/SnatRouterOutline.svg

<svg xmlns="http://www.w3.org/2000/svg" fill="none" viewBox="0 0 24 24" focusable="false"><path d="M0 0H24V24H0z"/><path fill="#74767B" fill-rule="evenodd" d="M3.05762 5.94526C3.05762 4.29612 4.39451 2.95923 6.04365 2.95923C7.46955 2.95923 8.66202 3.95868 8.95873 5.29526L10.109 5.29526C12.1248 5.29526 13.759 6.92942 13.759 8.94526L13.759 11.3695L18.7316 11.3695L17.2121 9.9451C16.9502 9.69958 16.937 9.28824 17.1825 9.02634C17.428 8.76443 17.8393 8.75115 18.1012 8.99666L20.8203 11.5456C20.9514 11.6685 21.0258 11.8402 21.0258 12.0198C21.0258 12.1995 20.9514 12.3712 20.8203 12.4941L18.1012 15.043C17.8393 15.2885 17.428 15.2752 17.1825 15.0133C16.937 14.7514 16.9502 14.3401 17.2121 14.0946L18.7324 12.6695L13.759 12.6695L13.759 15.0666C13.759 17.0824 12.1248 18.7166 10.109 18.7166L8.95873 18.7166C8.66202 20.0532 7.46955 21.0526 6.04365 21.0526C4.39451 21.0526 3.05762 19.7157 3.05762 18.0666C3.05762 16.4175 4.39451 15.0806 6.04365 15.0806C7.46955 15.0806 8.66202 16.08 8.95873 17.4166L10.109 17.4166C11.4069 17.4166 12.459 16.3645 12.459 15.0666L12.459 8.94526C12.459 7.64739 11.4069 6.59526 10.109 6.59526L8.95873 6.59526C8.66202 7.93184 7.46955 8.93129 6.04365 8.93129C4.39451 8.93129 3.05762 7.5944 3.05762 5.94526ZM6.04365 4.25923C5.11248 4.25923 4.35762 5.01409 4.35762 5.94526C4.35762 6.87643 5.11248 7.63129 6.04365 7.63129C6.97481 7.63129 7.72968 6.87643 7.72968 5.94526C7.72968 5.01409 6.97481 4.25923 6.04365 4.25923ZM4.35762 18.0666C4.35762 17.1354 5.11248 16.3806 6.04365 16.3806C6.97481 16.3806 7.72968 17.1354 7.72968 18.0666C7.72968 18.9978 6.97481 19.7526 6.04365 19.7526C5.11248 19.7526 4.35762 18.9978 4.35762 18.0666Z"/></svg>

<svg xmlns="http://www.w3.org/2000/svg" fill="none" viewBox="0 0 24 24" focusable="false"><path fill="#74767B" fill-rule="evenodd" d="M3.05 5.94c0-1.65 1.34-2.99 2.99-2.99 1.42 0 2.62 1 2.91 2.34h1.15c2.02 0 3.65 1.63 3.65 3.65v2.42h4.98l-1.52-1.42a.65.65 0 0 1-.03-.92c.24-.26.65-.27.92-.03l2.72 2.55c.13.12.2.3.2.47 0 .18-.07.36-.2.48l-2.72 2.55c-.27.24-.68.23-.92-.03a.65.65 0 0 1 .03-.92l1.52-1.43h-4.98v2.4c0 2.02-1.63 3.65-3.65 3.65H8.95a2.98 2.98 0 0 1-2.91 2.34c-1.65 0-2.99-1.34-2.99-2.99s1.34-2.98 2.99-2.98c1.42 0 2.62 1 2.91 2.33h1.15c1.3 0 2.35-1.05 2.35-2.35V8.94c0-1.3-1.05-2.35-2.35-2.35H8.95a2.98 2.98 0 0 1-2.91 2.34c-1.65 0-2.99-1.34-2.99-2.99m2.99-1.69c-.93 0-1.69.76-1.69 1.69s.76 1.69 1.69 1.69 1.68-.76 1.68-1.69-.75-1.69-1.68-1.69M4.35 18.06a1.686 1.686 0 1 1 1.69 1.69c-.93 0-1.69-.76-1.69-1.69"/></svg>
